!!!ONB: MCCC : ICD0071_10 : Extracted Monophonic Melody
!!!COM: Debussy, Claude
!!!OPR: Préludes, Premier Livre
!!!OMV: 10
!!!SCT: CD 125 ; L.117
!!!ODT: 1909///
**kern
*staff1
*clefG2
*k[b-]
*F:
*M6/4
4eee[
4eee]
2ccc#[
=8
2ccc#]
4eee-[
4eee-]
2aaa-
=9
2eee
4ccc#[
4ccc#]
2aa-[
=10
2aa-]
4bb-[
4bb-]
2eee-
=11
2bb
4aa-[
4aa-]
2bb-
=12
2eee-
4ccc#[
4ccc#]
2eee-
=13
1.bb
=14
4r
4dd
4ee
4bb
4ddd
4eee
=15
4bbb
4eee
4ddd
4bb
4ee
4dd
=16
1.r
=17
1.eee-
=18
1.eee-
=19
1.eee-
=20
1.r
=21
1.r
=22
2r
4gg[
4gg]
2aa
=23
2.r
4r
2aa
=24
1.dd
=25
2cc
4g[
4g]
2a
=26
2dd
4g[
4g]
2a
=27
2.dd
2.r
=28
2r
4ccc[
4ccc]
2ddd
=29
2.ggg
4fff
4eee
4ddd
=30
2ddd
4aa[
4aa]
2eee[
=31
4eee]
4fff
4ddd[
2ddd]
4ccc
=32
2.ccc[
4ccc]
2aa
=33
2bb-
4ddd[
4ddd]
2fff
=34
2.ccc[
4ccc]
2aa
=35
2bb-
4ddd[
4ddd]
2fff
=36
2.ggg
4fff
4ggg
4bbb-
=37
2.ggg[
4ggg]
2aaa
=38
2.fff[
4fff]
2fff[
=39
2fff]
4ddd[
4ddd]
2eee
=40
1.ccc[
=41
1.ccc]
=42
1.gg
=43
1.gg
=44
1.gg
=45
1.gg
=46
1.r
=47
1.r
=48
1.r
=49
1.r
=50
1.r
=51
1.r
=52
1.r
=53
1.r
=54
1.bb-
=55
2ccc#
4aa
2.aa[
=56
2aa]
4ccc#[
4ccc#]
2aa
=57
2ccc#
4aa
2.aa[
=58
2aa]
4ccc#[
4ccc#]
2eee-
=59
2fff#
4eee-[
2.eee-]
=60
2.eee-[
4eee-]
2eee-
=61
2fff#
4eee-[
2.eee-]
=62
1.eee-
=63
1.r
=64
1.r
=65
1.r
=66
1.r
=67
1.r
=68
1.r
=69
1.r
=70
1.r
=71
1.r
=72
1.r
=73
1.r
=74
1.r
=75
1.r
=76
1.r
=77
1.r
=78
1.r
=79
1.r
=80
1.r
=81
1.r
=82
1.r
=83
4r
4dd
4ee
4bb
4ddd
4eee
=84
4r
4dd
4ee
4bb
4ddd
4eee
=85
2ggg
4gg[
2.gg]
=86
2ggg
4gg
2.gg
=87
1.gg[
=88
2.gg]
2.r
==
*-
